assets/img/svg/blocks-fill.svg

<svg width="18" height="19" viewBox="0 0 18 19" fill="none" xmlns="http://www.w3.org/2000/svg">
<circle cx="9" cy="9.5" r="9" fill="#6E1FA8"/>
<path fill-rule="evenodd" clip-rule="evenodd" d="M11.6767 6.8232L6.32307 6.8232L6.32307 12.1768L11.6767 12.1768L11.6767 6.8232ZM6.32307 6.23303C5.99714 6.23303 5.73291 6.49726 5.73291 6.8232V12.1768C5.73291 12.5028 5.99713 12.767 6.32307 12.767H11.6767C12.0026 12.767 12.2669 12.5028 12.2669 12.1768V6.8232C12.2669 6.49726 12.0026 6.23303 11.6767 6.23303H6.32307Z" fill="#F5F5F5"/>
<path d="M10.4038 5.81148C10.4038 5.48554 10.668 5.22131 10.994 5.22131H12.6886C13.0145 5.22131 13.2788 5.48554 13.2788 5.81148V7.50609C13.2788 7.83203 13.0145 8.09625 12.6886 8.09625H10.994C10.668 8.09625 10.4038 7.83203 10.4038 7.50609V5.81148Z" fill="#6E1FA8"/>
<path fill-rule="evenodd" clip-rule="evenodd" d="M12.6886 5.81148H10.994L10.994 7.50609H12.6886V5.81148ZM10.994 5.22131C10.668 5.22131 10.4038 5.48554 10.4038 5.81148V7.50609C10.4038 7.83203 10.668 8.09625 10.994 8.09625H12.6886C13.0145 8.09625 13.2788 7.83203 13.2788 7.50609V5.81148C13.2788 5.48554 13.0145 5.22131 12.6886 5.22131H10.994Z" fill="#F5F5F5"/>
<path d="M10.4038 11.494C10.4038 11.168 10.668 10.9038 10.994 10.9038H12.6886C13.0145 10.9038 13.2788 11.168 13.2788 11.494V13.1886C13.2788 13.5145 13.0145 13.7788 12.6886 13.7788H10.994C10.668 13.7788 10.4038 13.5145 10.4038 13.1886V11.494Z" fill="#6E1FA8"/>
<path fill-rule="evenodd" clip-rule="evenodd" d="M12.6886 11.494H10.994L10.994 13.1886H12.6886V11.494ZM10.994 10.9038C10.668 10.9038 10.4038 11.168 10.4038 11.494V13.1886C10.4038 13.5145 10.668 13.7788 10.994 13.7788H12.6886C13.0145 13.7788 13.2788 13.5145 13.2788 13.1886V11.494C13.2788 11.168 13.0145 10.9038 12.6886 10.9038H10.994Z" fill="#F5F5F5"/>
<path d="M4.72119 5.81148C4.72119 5.48554 4.98542 5.22131 5.31136 5.22131H7.00597C7.33191 5.22131 7.59613 5.48554 7.59613 5.81148V7.50609C7.59613 7.83203 7.33191 8.09625 7.00597 8.09625H5.31136C4.98542 8.09625 4.72119 7.83203 4.72119 7.50609V5.81148Z" fill="#6E1FA8"/>
<path fill-rule="evenodd" clip-rule="evenodd" d="M7.00597 5.81148H5.31136L5.31136 7.50609H7.00597V5.81148ZM5.31136 5.22131C4.98542 5.22131 4.72119 5.48554 4.72119 5.81148V7.50609C4.72119 7.83203 4.98542 8.09625 5.31136 8.09625H7.00597C7.33191 8.09625 7.59613 7.83203 7.59613 7.50609V5.81148C7.59613 5.48554 7.33191 5.22131 7.00597 5.22131H5.31136Z" fill="#F5F5F5"/>
<path d="M4.72119 11.494C4.72119 11.168 4.98542 10.9038 5.31136 10.9038H7.00597C7.33191 10.9038 7.59613 11.168 7.59613 11.494V13.1886C7.59613 13.5145 7.33191 13.7788 7.00597 13.7788H5.31136C4.98542 13.7788 4.72119 13.5145 4.72119 13.1886V11.494Z" fill="#6E1FA8"/>
<path fill-rule="evenodd" clip-rule="evenodd" d="M7.00597 11.494H5.31136L5.31136 13.1886H7.00597V11.494ZM5.31136 10.9038C4.98542 10.9038 4.72119 11.168 4.72119 11.494V13.1886C4.72119 13.5145 4.98542 13.7788 5.31136 13.7788H7.00597C7.33191 13.7788 7.59613 13.5145 7.59613 13.1886V11.494C7.59613 11.168 7.33191 10.9038 7.00597 10.9038H5.31136Z" fill="#F5F5F5"/>
</svg>

<svg width="18" height="19" fill="none" xmlns="http://www.w3.org/2000/svg"><circle cx="9" cy="9.5" r="9" fill="#6E1FA8"/><path fill-rule="evenodd" clip-rule="evenodd" d="M11.677 6.823H6.323v5.354h5.354V6.823Zm-5.354-.59a.59.59 0 0 0-.59.59v5.354c0 .326.264.59.59.59h5.354a.59.59 0 0 0 .59-.59V6.823a.59.59 0 0 0-.59-.59H6.323Z" fill="#F5F5F5"/><path d="M10.404 5.811a.59.59 0 0 1 .59-.59h1.695a.59.59 0 0 1 .59.59v1.695a.59.59 0 0 1-.59.59h-1.695a.59.59 0 0 1-.59-.59V5.811Z" fill="#6E1FA8"/><path fill-rule="evenodd" clip-rule="evenodd" d="M12.689 5.811h-1.695v1.695h1.695V5.811Zm-1.695-.59a.59.59 0 0 0-.59.59v1.695c0 .326.264.59.59.59h1.695a.59.59 0 0 0 .59-.59V5.811a.59.59 0 0 0-.59-.59h-1.695Z" fill="#F5F5F5"/><path d="M10.404 11.494a.59.59 0 0 1 .59-.59h1.695a.59.59 0 0 1 .59.59v1.695a.59.59 0 0 1-.59.59h-1.695a.59.59 0 0 1-.59-.59v-1.695Z" fill="#6E1FA8"/><path fill-rule="evenodd" clip-rule="evenodd" d="M12.689 11.494h-1.695v1.695h1.695v-1.695Zm-1.695-.59a.59.59 0 0 0-.59.59v1.695c0 .325.264.59.59.59h1.695a.59.59 0 0 0 .59-.59v-1.695a.59.59 0 0 0-.59-.59h-1.695Z" fill="#F5F5F5"/><path d="M4.721 5.811a.59.59 0 0 1 .59-.59h1.695a.59.59 0 0 1 .59.59v1.695a.59.59 0 0 1-.59.59H5.311a.59.59 0 0 1-.59-.59V5.811Z" fill="#6E1FA8"/><path fill-rule="evenodd" clip-rule="evenodd" d="M7.006 5.811H5.311v1.695h1.695V5.811Zm-1.695-.59a.59.59 0 0 0-.59.59v1.695c0 .326.264.59.59.59h1.695a.59.59 0 0 0 .59-.59V5.811a.59.59 0 0 0-.59-.59H5.311Z" fill="#F5F5F5"/><path d="M4.721 11.494a.59.59 0 0 1 .59-.59h1.695a.59.59 0 0 1 .59.59v1.695a.59.59 0 0 1-.59.59H5.311a.59.59 0 0 1-.59-.59v-1.695Z" fill="#6E1FA8"/><path fill-rule="evenodd" clip-rule="evenodd" d="M7.006 11.494H5.311v1.695h1.695v-1.695Zm-1.695-.59a.59.59 0 0 0-.59.59v1.695c0 .325.264.59.59.59h1.695a.59.59 0 0 0 .59-.59v-1.695a.59.59 0 0 0-.59-.59H5.311Z" fill="#F5F5F5"/></svg>
